X:1
T:Title
%%score { ( 1 4 5 ) | ( 2 3 ) }
L:1/8
M:4/4
K:Eb
V:1 treble nm="Grand Piano"
V:4 treble 
V:5 treble 
V:2 bass 
V:3 bass 
V:1
 z4 z[Q:1/4=100] GFA | GF [G,CE]2 .[G,DF]2[K:bass] .[F,=B,D]2 | [G,C]4- [G,C]EDC | z4 .D2 z2 | %4
 [G,C]6 z2 | [EG][DF] [CE]2 [DF][CE][=B,D]E | [G,C]4- [G,C]GFA | G6[K:bass][K:treble] z2 | %8
[M:11/16] c/-c/-c/-c/-c/-c/-c/-c-<c |[M:5/16] z5/2 |[M:4/4] [Ae]>[Ad] [Ad]>[Ac] [Ec]>[D=B] [Ec]2 | %11
 [EG]3- [EG]/c/ [DAc]>B B>A | [DA]3 A G=E G2 | [CF]4- [CF]AGF | ED C2 EDC=B, |[M:5/8] C-C- C3 |] %16
V:2
 z8 | [C,E,C]2 C,2 z E z E | C,2 G,,E,, z G,3 | [G,,F,G,]2 [C,E,G,]2 z[K:treble] FED | %4
 C,2 G,,E,, z[K:treble] GFA | [C,,C,]2 [C,G,]2 [G,,G,]2 z C | C,2 G,,2 C,,2 z2 | [CE]6 z2 | %8
[M:11/16][K:treble] F/-F/-F/-F/-F/-F/-F/-F-<F |[M:5/16] F/[K:bass][F,,F,]-<[F,,F,] | %10
[M:4/4] [F,A,]2 [B,D]2 [C,G,]2 [C,G,]2 | [C,G,]3- [C,G,]/[DA]/ z z/[K:treble] [DA]/ [DA]>D | %12
 z2 z D .[E,G,B,]2 B,2 | F,2 C,2 F,,2 z2 | C=B, [C,E,G,]2 CB,[E,G,][D,F,] | %15
[M:5/8] [C,G,]-[C,G,]- [C,G,]3 |] %16
V:3
 x8 | z4 G,,2 G,,2 | z4 C,,2 z2 | z4 G,,4[K:treble] | z4 C,,2[K:treble] z2 | z4 z2 [G,,F,]2 | x8 | %7
 x8 |[M:11/16][K:treble] x11/2 |[M:5/16] x/[K:bass] x2 |[M:4/4] x8 | %11
 z4 [B,,F,]2[K:treble] [A,B,]2 | [B,,A,]4 z4 | x8 | [C,G,]2 z2 [C,G,]2 z2 |[M:5/8] x5 |] %16
V:4
 x8 | x6[K:bass] x2 | x8 | =B,2 C2 [F,B,]4 | x8 | x8 | x8 | z2[K:bass] C,E, G,[K:treble]c=Bd | %8
[M:11/16] z/ z/ z F,A, z/ z |[M:5/16] c<[Ac][FAe]/ |[M:4/4] x8 | x8 | x8 | x8 | x8 |[M:5/8] x5 |] %16
V:5
 x8 | x6[K:bass] x2 | x8 | x8 | x8 | x8 | x8 | x2[K:bass] x3[K:treble] x3 | %8
[M:11/16] z/ z/ z/ z/ z/ z/ z C3/2- |[M:5/16] C/ z/ z/ z |[M:4/4] x8 | x8 | x8 | x8 | x8 | %15
[M:5/8] x5 |] %16

